src/16/places/folder-drag-accept.svg

<svg xmlns="http://www.w3.org/2000/svg" width="16" height="16" version="1.1" id="svg9"><defs id="defs3"><style id="current-color-scheme" type="text/css">.ColorScheme-Text{color:#727272}</style></defs><path d="M1 2v6h1l4-2h9V2c0-1-1-1-1-1H2S1 1 1 2z" id="path5" color="#727272" opacity="1" fill="#000" fill-opacity=".267"/><path class="ColorScheme-Text" d="M15 7s1 0 1 1v6s0 1-1 1H1s-1 0-1-1v-4c0-1 1-1 1-1h6l2-2z" id="path7" color="#727272" fill="#003479" fill-opacity=".561"/><path id="path834" d="M15 8v6H1v-3-1h6.443l2-2z" class="ColorScheme-Text" color="#727272" fill="#6ba4e7" fill-opacity="1" stroke-width="1"/><path id="path836" d="M2 2v6h5l2-2h5V2H3z" color="#727272" opacity="1" fill="#fff" fill-opacity="1"/></svg>

<?xml version="1.0" encoding="UTF-8" standalone="no"?>
<svg
   xmlns:dc="http://purl.org/dc/elements/1.1/"
   xmlns:cc="http://creativecommons.org/ns#"
   xmlns:rdf="http://www.w3.org/1999/02/22-rdf-syntax-ns#"
   xmlns:svg="http://www.w3.org/2000/svg"
   xmlns="http://www.w3.org/2000/svg"
   xmlns:sodipodi="http://sodipodi.sourceforge.net/DTD/sodipodi-0.dtd"
   xmlns:inkscape="http://www.inkscape.org/namespaces/inkscape"
   width="16"
   height="16"
   viewBox="0 0 16 16"
   version="1.1"
   id="svg9"
   sodipodi:docname="folder-drag-accept.svg"
   inkscape:version="0.92.4 (5da689c313, 2019-01-14)">
  <metadata
     id="metadata13">
    <rdf:RDF>
      <cc:Work
         rdf:about="">
        <dc:format>image/svg+xml</dc:format>
        <dc:type
           rdf:resource="http://purl.org/dc/dcmitype/StillImage" />
      </cc:Work>
    </rdf:RDF>
  </metadata>
  <sodipodi:namedview
     pagecolor="#ffffff"
     bordercolor="#666666"
     borderopacity="1"
     objecttolerance="10"
     gridtolerance="10"
     guidetolerance="10"
     inkscape:pageopacity="0"
     inkscape:pageshadow="2"
     inkscape:window-width="1366"
     inkscape:window-height="708"
     id="namedview11"
     showgrid="true"
     inkscape:zoom="10.429825"
     inkscape:cx="10.825383"
     inkscape:cy="7.4953658"
     inkscape:window-x="0"
     inkscape:window-y="30"
     inkscape:window-maximized="1"
     inkscape:current-layer="svg9">
    <inkscape:grid
       type="xygrid"
       id="grid826" />
  </sodipodi:namedview>
  <defs
     id="defs3">
    <style
       id="current-color-scheme"
       type="text/css">
   .ColorScheme-Text { color:#727272; } .ColorScheme-Highlight { color:#5294e2; }
  </style>
  </defs>
  <path
     style="color:#727272;opacity:1;fill:#000000;fill-opacity:0.26666667"
     d="M 1,2 V 8 H 2 L 6,6 h 9 V 2 C 15,1 14,1 14,1 H 2 C 2,1 1,1 1,2 Z"
     id="path5"
     inkscape:connector-curvature="0"
     sodipodi:nodetypes="ccccccccc" />
  <path
     style="color:#727272;fill:#003479;fill-opacity:0.56078407"
     class="ColorScheme-Text"
     d="m 15,7 c 0,0 1,0 1,1 v 6 c 0,0 0,1 -1,1 H 1 C 1,15 0,15 0,14 V 10 C 0,9 1,9 1,9 H 7 L 9,7 Z"
     id="path7"
     inkscape:connector-curvature="0"
     sodipodi:nodetypes="cscscsscccc" />
  <path
     sodipodi:nodetypes="ccccccscccc"
     inkscape:connector-curvature="0"
     id="path834"
     d="M 15,8 V 9 13.2 14 H 1 l -3e-8,1.2 c 0,0 3e-8,-2.8 3e-8,-4.2 0,-0.333333 0,-1 0,-1 h 6.4434398 l 2,-2 z"
     class="ColorScheme-Text"
     style="color:#727272;fill:#6ba4e7;fill-opacity:1;stroke-width:1" />
  <path
     sodipodi:nodetypes="ccccccccc"
     inkscape:connector-curvature="0"
     id="path836"
     d="M 2,2 V 8 H 7 L 9,6 h 5 V 2 H 13 3 Z"
     style="color:#727272;opacity:1;fill:#ffffff;fill-opacity:1" />
</svg>
